src/game/GamePart/Arena/Field/CellsLayer/img/water.svg

<svg width="100" height="100" viewBox="0 0 100 100" fill="none" xmlns="http://www.w3.org/2000/svg">
<rect width="100" height="100" fill="url(#paint0_radial)"/>
<path fill-rule="evenodd" clip-rule="evenodd" d="M26.2127 30.728L26.2126 30.7279L26.2127 30.7279C21.5265 26.0418 13.9289 26.0417 9.24255 30.7276L5 26.485C12.0294 19.4556 23.4262 19.4556 30.4557 26.4848L38.9405 18L38.9406 18.0001L30.4558 26.4849L30.4558 26.485L30.4558 26.4851C35.142 31.1712 42.7396 31.1713 47.4259 26.4854L51.6685 30.7279C44.6391 37.7573 33.2422 37.7574 26.2128 30.7281L17.7279 39.2129L17.7278 39.2128L26.2127 30.728ZM68.6401 30.7279L72.8827 26.4854C77.569 31.1713 85.1667 31.1712 89.8529 26.485L81.368 18.0001L81.3681 18L94.096 30.7279C87.0665 37.7574 75.6696 37.7574 68.6401 30.7279ZM72.8823 26.485C65.8529 19.4556 54.4559 19.4556 47.4265 26.485L60.1544 39.2129L60.1545 39.2128L51.6696 30.7279C56.3557 26.0418 63.9534 26.0416 68.6398 30.7276L72.8823 26.485Z" fill="#E8FEFB"/>
<path fill-rule="evenodd" clip-rule="evenodd" d="M26.2127 51.728L26.2126 51.7279L26.2127 51.7279C21.5265 47.0418 13.9289 47.0417 9.24255 51.7276L5 47.485C12.0294 40.4556 23.4262 40.4556 30.4557 47.4848L38.9405 39L38.9406 39.0001L30.4558 47.4849L30.4558 47.485L30.4558 47.4851C35.142 52.1712 42.7396 52.1713 47.4259 47.4854L51.6685 51.7279C44.6391 58.7573 33.2422 58.7574 26.2128 51.7281L17.7279 60.2129L17.7278 60.2128L26.2127 51.728ZM68.6401 51.7279L72.8827 47.4854C77.569 52.1713 85.1667 52.1712 89.8529 47.485L81.368 39.0001L81.3681 39L94.096 51.7279C87.0665 58.7574 75.6696 58.7574 68.6401 51.7279ZM72.8823 47.485C65.8529 40.4556 54.4559 40.4556 47.4265 47.485L60.1544 60.2129L60.1545 60.2128L51.6696 51.7279C56.3557 47.0418 63.9534 47.0416 68.6398 51.7276L72.8823 47.485Z" fill="#E8FEFB"/>
<path fill-rule="evenodd" clip-rule="evenodd" d="M26.2127 72.728L26.2126 72.7279L26.2127 72.7279C21.5265 68.0418 13.9289 68.0417 9.24255 72.7276L5 68.485C12.0294 61.4556 23.4262 61.4556 30.4557 68.4848L38.9405 60L38.9406 60.0001L30.4558 68.4849L30.4558 68.485L30.4558 68.4851C35.142 73.1712 42.7396 73.1713 47.4259 68.4854L51.6685 72.7279C44.6391 79.7573 33.2422 79.7574 26.2128 72.7281L17.7279 81.2129L17.7278 81.2128L26.2127 72.728ZM68.6401 72.7279L72.8827 68.4854C77.569 73.1713 85.1667 73.1712 89.8529 68.485L81.368 60.0001L81.3681 60L94.096 72.7279C87.0665 79.7574 75.6696 79.7574 68.6401 72.7279ZM72.8823 68.485C65.8529 61.4556 54.4559 61.4556 47.4265 68.485L60.1544 81.2129L60.1545 81.2128L51.6696 72.7279C56.3557 68.0418 63.9534 68.0416 68.6398 72.7276L72.8823 68.485Z" fill="#E8FEFB"/>
<defs>
<radialGradient id="paint0_radial" cx="0" cy="0" r="1" gradientUnits="userSpaceOnUse" gradientTransform="translate(50) rotate(90) scale(302.5)">
<stop stop-color="#EBFFFC"/>
<stop offset="1" stop-color="#81D2C7"/>
</radialGradient>
</defs>
</svg>

<svg width="100" height="100" fill="none" xmlns="http://www.w3.org/2000/svg"><path fill="url(#paint0_radial)" d="M0 0h100v100H0z"/><path fill-rule="evenodd" clip-rule="evenodd" d="M26.213 30.728c-4.687-4.686-12.284-4.686-16.97 0L5 26.485c7.03-7.03 18.426-7.03 25.456 0L38.94 18l-8.485 8.485c4.686 4.686 12.284 4.686 16.97 0l4.242 4.243c-7.029 7.03-18.426 7.03-25.455 0l-8.485 8.485 8.485-8.485zm42.427 0l4.243-4.243c4.686 4.686 12.284 4.686 16.97 0L81.368 18l12.728 12.728c-7.03 7.03-18.426 7.03-25.456 0zm4.242-4.243c-7.03-7.03-18.426-7.03-25.456 0l12.728 12.728-8.484-8.485c4.686-4.686 12.283-4.686 16.97 0l4.242-4.243zM26.213 51.728c-4.687-4.686-12.284-4.686-16.97 0L5 47.485c7.03-7.03 18.426-7.03 25.456 0L38.94 39l-8.485 8.485c4.686 4.686 12.284 4.686 16.97 0l4.242 4.243c-7.029 7.03-18.426 7.03-25.455 0l-8.485 8.485 8.485-8.485zm42.427 0l4.243-4.243c4.686 4.686 12.284 4.686 16.97 0L81.368 39l12.728 12.728c-7.03 7.03-18.426 7.03-25.456 0zm4.242-4.243c-7.03-7.03-18.426-7.03-25.456 0l12.728 12.728-8.484-8.485c4.686-4.686 12.283-4.686 16.97 0l4.242-4.243zM26.213 72.728c-4.687-4.686-12.284-4.686-16.97 0L5 68.485c7.03-7.03 18.426-7.03 25.456 0L38.94 60l-8.485 8.485c4.686 4.686 12.284 4.686 16.97 0l4.242 4.243c-7.029 7.03-18.426 7.03-25.455 0l-8.485 8.485 8.485-8.485zm42.427 0l4.243-4.243c4.686 4.686 12.284 4.686 16.97 0L81.368 60l12.728 12.728c-7.03 7.03-18.426 7.03-25.456 0zm4.242-4.243c-7.03-7.03-18.426-7.03-25.456 0l12.728 12.728-8.484-8.485c4.686-4.686 12.283-4.686 16.97 0l4.242-4.243z" fill="#E8FEFB"/><defs><radialGradient id="paint0_radial" cx="0" cy="0" r="1" gradientUnits="userSpaceOnUse" gradientTransform="rotate(90 25 25) scale(302.5)"><stop stop-color="#EBFFFC"/><stop offset="1" stop-color="#81D2C7"/></radialGradient></defs></svg>
